packages/foundations/assets/icons/functional/images/social/face_disappointed_32.svg

<svg xmlns="http://www.w3.org/2000/svg" width="32" height="32" fill="none"><g clip-path="url(#a)"><path fill="#1A1C1F" fill-rule="evenodd" d="M26.307 16c0 5.683-4.624 10.307-10.307 10.307S5.693 21.683 5.693 16 10.317 5.693 16 5.693 26.307 10.317 26.307 16M4 16c0 6.627 5.373 12 12 12s12-5.373 12-12S22.627 4 16 4 4 9.373 4 16m10.299-4.703a1 1 0 0 0-1.307.541 2.004 2.004 0 0 1-2.614 1.082 1 1 0 1 0-.764 1.848 4 4 0 0 0 1.525.305c1.57 0 3.063-.931 3.701-2.469a1 1 0 0 0-.541-1.307m8.669 2.164a1 1 0 0 0-1.306-.541 2.005 2.005 0 0 1-2.614-1.082 1.001 1.001 0 0 0-1.848.766 4.01 4.01 0 0 0 3.701 2.469c.509 0 1.026-.098 1.525-.305.51-.211.753-.796.542-1.307m-2.391 7.962c-.022-.01-2.258-.924-4.577-.924s-4.555.914-4.577.924a1.003 1.003 0 0 1-1.359-1.145C10.44 18.625 12.166 15.5 16 15.5s5.56 3.125 5.936 4.778a.998.998 0 0 1-.977 1.221q-.194 0-.382-.076M16 18.499c1.085 0 2.135.163 3.014.362-.607-.715-1.559-1.362-3.014-1.362s-2.406.647-3.014 1.362c.878-.199 1.929-.362 3.014-.362" clip-rule="evenodd"/></g><defs><clipPath id="a"><path fill="#fff" d="M0 0h32v32H0z"/></clipPath></defs></svg>

<svg width="32" height="32" viewBox="0 0 32 32" fill="none" xmlns="http://www.w3.org/2000/svg">
<g clip-path="url(#clip0_187_354)">
<path fill-rule="evenodd" clip-rule="evenodd" d="M26.307 16C26.307 21.683 21.683 26.307 16 26.307C10.317 26.307 5.693 21.683 5.693 16C5.693 10.317 10.317 5.693 16 5.693C21.683 5.693 26.307 10.317 26.307 16ZM4 16C4 22.627 9.373 28 16 28C22.627 28 28 22.627 28 16C28 9.373 22.627 4 16 4C9.373 4 4 9.373 4 16ZM14.299 11.297C13.789 11.086 13.204 11.328 12.992 11.838C12.57 12.857 11.395 13.341 10.378 12.92C9.867 12.708 9.282 12.951 9.072 13.461C8.861 13.972 9.103 14.557 9.614 14.768C10.113 14.975 10.63 15.073 11.139 15.073C12.709 15.073 14.202 14.142 14.84 12.604C15.051 12.094 14.809 11.509 14.299 11.297ZM22.968 13.461C22.757 12.951 22.171 12.708 21.662 12.92C20.643 13.341 19.47 12.856 19.048 11.838C18.836 11.328 18.25 11.086 17.741 11.297C17.231 11.509 16.989 12.094 17.2 12.604C17.838 14.142 19.331 15.073 20.901 15.073C21.41 15.073 21.927 14.975 22.426 14.768C22.936 14.557 23.179 13.972 22.968 13.461ZM20.577 21.423C20.555 21.413 18.319 20.499 16 20.499C13.681 20.499 11.445 21.413 11.423 21.423C11.076 21.565 10.68 21.504 10.395 21.263C10.109 21.022 9.981 20.642 10.064 20.278C10.44 18.625 12.166 15.5 16 15.5C19.834 15.5 21.56 18.625 21.936 20.278C22.019 20.642 21.891 21.022 21.605 21.263C21.421 21.418 21.192 21.499 20.959 21.499C20.831 21.499 20.701 21.474 20.577 21.423ZM16 18.499C17.085 18.499 18.135 18.662 19.014 18.861C18.407 18.146 17.455 17.499 16 17.499C14.545 17.499 13.594 18.146 12.986 18.861C13.864 18.662 14.915 18.499 16 18.499Z" fill="#1A1C1F"/>
</g>
<defs>
<clipPath id="clip0_187_354">
<rect width="32" height="32" fill="white"/>
</clipPath>
</defs>
</svg>
